svgs/thin/cart-flatbed-empty.svg

<svg xmlns="http://www.w3.org/2000/svg" viewBox="0 0 640 512"><!-- Font Awesome Pro 6.0.0-alpha2 by @fontawesome - https://fontawesome.com License - https://fontawesome.com/license (Commercial License) --><path d="M632 416H128V72C128 29.594 101.688 0 64 0H8C3.594 0 0 3.594 0 8S3.594 16 8 16H64C97.156 16 112 44.125 112 72V424C112 428.406 115.594 432 120 432H172.461C164.797 440.506 160 451.65 160 464C160 490.51 181.492 512 208 512S256 490.51 256 464C256 451.65 251.203 440.506 243.543 432H460.461C452.797 440.506 448 451.65 448 464C448 490.51 469.492 512 496 512S544 490.51 544 464C544 451.65 539.203 440.506 531.543 432H632C636.406 432 640 428.406 640 424S636.406 416 632 416ZM240 464C240 481.645 225.645 496 208 496S176 481.645 176 464S190.355 432 208 432S240 446.355 240 464ZM528 464C528 481.645 513.645 496 496 496S464 481.645 464 464S478.355 432 496 432S528 446.355 528 464Z"/></svg>

<svg xmlns="http://www.w3.org/2000/svg" viewBox="0 0 640 512"><!--! Font Awesome Pro 6.3.0 by @fontawesome - https://fontawesome.com License - https://fontawesome.com/license (Commercial License) Copyright 2023 Fonticons, Inc. --><path d="M632 416H128V72C128 29.59 101.7 0 64 0H8C3.594 0 0 3.594 0 8S3.594 16 8 16H64c33.16 0 48 28.12 48 56v352c0 4.406 3.594 8 8 8h52.46C164.8 440.5 160 451.7 160 464C160 490.5 181.5 512 208 512S256 490.5 256 464c0-12.35-4.797-23.49-12.46-32h216.9c-7.664 8.506-12.43 19.65-12.43 32c0 26.51 21.49 48 47.99 48c26.51 0 48.01-21.49 48.01-48c0-12.35-4.828-23.49-12.49-32H632c4.406 0 8-3.596 8-8.002S636.4 416 632 416zM240 464c0 17.64-14.36 32-32 32s-32-14.36-32-32s14.36-32 32-32S240 446.4 240 464zM528 464c0 17.64-14.36 32-32 32s-32-14.36-32-32s14.36-32 32-32S528 446.4 528 464z"/></svg>
